X: 30
T: Aurelia and Gallitea
P: Longways for as many as will
%R: minuet
B: "The Dancing-Master" printed by John Walsh, London
S: 6: CCDM1 http://imslp.org/wiki/The_Compleat_Country_Dancing-Master_(Various) V.1 p.22 #39
Z: 2012-2013 John Chambers <jc:trillian.mit.edu>
M: 3/2
L: 1/8
K: Gm
% - - - - - - - - - - - - - - - - - - - - - - - - -
"1"[| G4 B4 d2cB | A2F2 F2cB A2GF | G4 B4 d2cB | A2G2 g2G2 A2(GF) |]
"2"[| DGFA G2G,2 B,4 | D2 F4 (Bc) A2(GF) | DGFA G2G,2 B,4 | D2 G4 B2 A2G2 |]
"3"[| GABG ABcA BcdB | A2F2 c2F2 ABcA | GABG ABcA BdcB | A2G2 g2G2 ABcA |]
"4"[| Gg^fa g2G2 B4 | F2 f4 F2 ABcA | Gg^fa g2G2 B4 | A2 g4 G2 ABcA |]
"5"[| B,2CB, A,2B,A, G,4 | D2 F4 Bc A2GF | B,2CB, A,2B,A, G,4 | D2 G4 B2 AG |]
% - - - - - - - - - - Dance description: - - - - - - - - - -
%%begintext align
%% First Cu. set and cast off, and turn his Partner, 2d Cu. do the same; 1st Cu cross
%% over twice, lead to the Top, and cast off; the Man figures on the Wo. Side, and the
%% Wo. on the Man's, then cast up, and Back to Back with his Partner; the 2d Cu.
%% lead thro' the 1st Cu. and cast off, and turn his Partner; the 1st Man cast off and
%% turn the 2d Wo. and the 1st Wo. cast off and turn the 2d Man, then they are in
%% the 2d Cu. Place.
%%endtext

%%sep 1 1 500
%%sep 1 1 500
